icons/op-google-plus-24.svg

<svg width="24" height="24" viewBox="0 0 24 24" fill="none" xmlns="http://www.w3.org/2000/svg">
<path d="M12.437 16.8674C12.437 16.7326 12.4034 16.5979 12.3697 16.4632C12.3361 16.3284 12.3361 16.2274 12.3025 16.1263C12.2689 16.0253 12.2017 15.8905 12.1345 15.7895C12.0336 15.6547 11.9664 15.5874 11.9328 15.4863L11.6639 15.2168C11.563 15.0821 11.4622 15.0147 11.395 14.9474C11.3277 14.9137 11.2269 14.8126 11.0924 14.7116C10.958 14.6105 10.8571 14.5432 10.7899 14.5095C10.7563 14.4421 10.6218 14.3747 10.4874 14.2737C10.3193 14.1726 10.2185 14.1053 10.1849 14.0716C10.084 14.0716 9.91597 14.0379 9.71429 14.0379C9.34454 14.0379 9.0084 14.0716 8.67227 14.1053C8.36975 14.1726 8 14.24 7.66387 14.3747C7.29412 14.4758 6.9916 14.6105 6.72269 14.8126C6.45378 14.9811 6.21849 15.2168 6.05042 15.52C5.88235 15.8232 5.78151 16.16 5.78151 16.5642C5.78151 17.0021 5.91597 17.3726 6.11765 17.7095C6.35294 18.08 6.65546 18.3495 7.02521 18.5179C7.39496 18.72 7.76471 18.8884 8.16807 18.9558C8.57143 19.0568 8.97479 19.1242 9.41177 19.1242C9.78151 19.1242 10.1513 19.0905 10.4874 18.9895C10.8235 18.9221 11.1261 18.7874 11.4286 18.6189C11.7311 18.4505 11.9664 18.2147 12.1681 17.9116C12.3361 17.6084 12.437 17.2716 12.437 16.8674ZM11.2605 8.54737C11.2605 8.17684 11.2269 7.77263 11.1261 7.33474C10.9916 6.89684 10.8571 6.49263 10.6555 6.08842C10.4538 5.68421 10.1849 5.34737 9.84874 5.07789C9.51261 4.80842 9.14286 4.67368 8.70588 4.67368C8.10084 4.67368 7.66387 4.90947 7.32773 5.34737C6.9916 5.78526 6.82353 6.32421 6.82353 6.93053C6.82353 7.23368 6.85714 7.53684 6.95798 7.87368C7.02521 8.21053 7.12605 8.54737 7.29412 8.88421C7.42857 9.22105 7.63025 9.52421 7.83193 9.79368C8.03361 10.0632 8.26891 10.2653 8.57143 10.4337C8.87395 10.6021 9.17647 10.6695 9.51261 10.6695C10.1176 10.6695 10.5882 10.5011 10.8571 10.0968C11.1261 9.72632 11.2605 9.18737 11.2605 8.54737ZM10.0168 4H14.2185L12.9076 4.74105H11.6303C12.0672 5.04421 12.437 5.44842 12.6723 5.95368C12.9076 6.49263 13.042 7.03158 13.042 7.57053C13.042 8.07579 12.9748 8.48 12.8403 8.85053C12.6723 9.22105 12.5042 9.52421 12.3025 9.72632L11.6639 10.3663C11.4286 10.5347 11.2605 10.7368 11.1261 10.9389C10.958 11.1411 10.8908 11.3768 10.8908 11.6126C10.8908 11.7811 10.958 11.9158 11.0588 12.0842C11.1597 12.2526 11.2941 12.3874 11.4622 12.5558C11.6303 12.6905 11.8319 12.8589 12.0336 13.0274C12.2353 13.1621 12.437 13.3642 12.6387 13.5326C12.8403 13.7347 13.042 13.9705 13.2101 14.1726C13.3782 14.4084 13.5126 14.6779 13.6134 15.0147C13.7143 15.3179 13.7815 15.6547 13.7815 16.0253C13.7815 17.0358 13.3445 17.9453 12.437 18.7537C11.4622 19.5958 10.1176 20 8.40336 20C8.03361 20 7.63025 19.9663 7.2605 19.8989C6.85714 19.8316 6.4874 19.7305 6.08403 19.5958C5.68067 19.4274 5.34454 19.2589 5.04202 19.0232C4.7395 18.7874 4.5042 18.5179 4.30252 18.1811C4.10084 17.8105 4 17.44 4 17.0021C4 16.5979 4.13445 16.16 4.36975 15.6884C4.57143 15.2842 4.87395 14.9474 5.27731 14.6442C5.68067 14.3411 6.15126 14.1053 6.68908 13.9368C7.19328 13.8021 7.69748 13.6674 8.16807 13.6C8.63866 13.5326 9.10924 13.4989 9.61345 13.4653C9.21008 12.9263 9.0084 12.4547 9.0084 12.0505V11.8147C9.04202 11.7474 9.04202 11.68 9.07563 11.6126C9.07563 11.5789 9.10924 11.5116 9.14286 11.4105C9.17647 11.3432 9.17647 11.2758 9.21008 11.2084C8.94118 11.2421 8.7395 11.2758 8.53782 11.2758C7.56303 11.2758 6.7563 10.9389 6.08403 10.3326C5.41176 9.69263 5.04202 8.88421 5.04202 7.94105C5.04202 7.06526 5.34454 6.25684 5.98319 5.54947C6.58824 4.84211 7.32773 4.37053 8.20168 4.16842C8.80672 4.03368 9.41177 4 10.0168 4ZM20 6.45895V7.67158H17.5462V10.1305H16.3025V7.67158H13.8487V6.45895H16.3025V4H17.5462V6.45895H20Z" fill="black"/>
</svg>

<svg xmlns="http://www.w3.org/2000/svg" width="24" height="24" viewBox="0 0 24 24"><path d="M12.437 16.867c0-.134-.034-.269-.067-.404-.034-.135-.034-.236-.067-.337a1.534 1.534 0 0 0-.169-.336c-.1-.135-.168-.203-.201-.304l-.269-.269c-.101-.135-.202-.202-.269-.27-.067-.033-.168-.134-.303-.235a2.336 2.336 0 0 0-.302-.203c-.034-.067-.168-.134-.303-.235a2.22 2.22 0 0 1-.302-.202c-.101 0-.269-.034-.471-.034-.369 0-.706.034-1.042.067-.302.068-.672.135-1.008.27-.37.101-.672.236-.941.438a1.94 1.94 0 0 0-.673.707c-.168.303-.268.64-.268 1.044 0 .438.134.809.336 1.145.235.371.537.64.907.809.37.202.74.37 1.143.438.403.101.807.168 1.244.168.37 0 .739-.034 1.075-.135.336-.067.639-.202.942-.37.302-.168.537-.404.739-.707.168-.304.269-.64.269-1.045Zm-1.176-8.32c0-.37-.034-.774-.135-1.212-.134-.438-.269-.842-.471-1.247a2.969 2.969 0 0 0-.806-1.01 1.754 1.754 0 0 0-1.143-.404c-.605 0-1.042.235-1.378.673-.336.438-.504.977-.504 1.584 0 .303.033.606.134.943.067.337.168.673.336 1.01.135.337.336.64.538.91.202.269.437.471.739.64.303.168.605.235.942.235.605 0 1.075-.168 1.344-.572.269-.371.404-.91.404-1.55ZM10.017 4h4.202l-1.311.741H11.63c.437.303.807.707 1.042 1.213.236.539.37 1.078.37 1.617 0 .505-.067.909-.202 1.28-.168.37-.336.673-.537.875l-.639.64a2.17 2.17 0 0 0-.538.573 1.031 1.031 0 0 0-.235.674c0 .168.067.303.168.471.101.169.235.303.403.472.168.135.37.303.572.471.201.135.403.337.605.506.201.202.403.437.571.64.168.235.303.505.403.842.101.303.168.64.168 1.01 0 1.011-.436 1.92-1.344 2.729-.975.842-2.319 1.246-4.034 1.246-.369 0-.773-.034-1.142-.101a7.571 7.571 0 0 1-1.177-.303c-.403-.169-.739-.337-1.042-.573a2.947 2.947 0 0 1-.739-.842A2.363 2.363 0 0 1 4 17.002c0-.404.134-.842.37-1.314.201-.404.504-.741.907-1.044a4.63 4.63 0 0 1 1.412-.707c.504-.135 1.008-.27 1.479-.337.471-.067.941-.101 1.445-.135-.403-.539-.605-1.01-.605-1.415v-.235c.034-.068.034-.135.068-.202 0-.034.033-.101.067-.202.033-.068.033-.135.067-.203-.269.034-.471.068-.672.068a3.542 3.542 0 0 1-2.454-.943c-.672-.64-1.042-1.449-1.042-2.392 0-.876.303-1.684.941-2.392.605-.707 1.345-1.178 2.219-1.381C8.807 4.034 9.412 4 10.017 4ZM20 6.459v1.213h-2.454v2.458h-1.244V7.672h-2.453V6.459h2.453V4h1.244v2.459H20Z"/></svg>
